svgs/thin/waveform-lines.svg

<svg xmlns="http://www.w3.org/2000/svg" viewBox="0 0 640 512"><!-- Font Awesome Pro 6.0.0-alpha2 by @fontawesome - https://fontawesome.com License - https://fontawesome.com/license (Commercial License) --><path d="M224 96C219.594 96 216 99.594 216 104V408C216 412.406 219.594 416 224 416S232 412.406 232 408V104C232 99.594 228.406 96 224 96ZM320 0C315.594 0 312 3.594 312 8V504C312 508.406 315.594 512 320 512S328 508.406 328 504V8C328 3.594 324.406 0 320 0ZM416 128C411.594 128 408 131.594 408 136V376C408 380.406 411.594 384 416 384S424 380.406 424 376V136C424 131.594 420.406 128 416 128ZM512 64C507.594 64 504 67.594 504 72V440C504 444.406 507.594 448 512 448S520 444.406 520 440V72C520 67.594 516.406 64 512 64ZM608 224C603.594 224 600 227.594 600 232V280C600 284.406 603.594 288 608 288S616 284.406 616 280V232C616 227.594 612.406 224 608 224ZM128 192C123.594 192 120 195.594 120 200V312C120 316.406 123.594 320 128 320S136 316.406 136 312V200C136 195.594 132.406 192 128 192ZM32 224C27.594 224 24 227.594 24 232V280C24 284.406 27.594 288 32 288S40 284.406 40 280V232C40 227.594 36.406 224 32 224Z"/></svg>

<svg xmlns="http://www.w3.org/2000/svg" viewBox="0 0 640 512"><!--! Font Awesome Pro 6.3.0 by @fontawesome - https://fontawesome.com License - https://fontawesome.com/license (Commercial License) Copyright 2023 Fonticons, Inc. --><path d="M224 96C219.6 96 216 99.59 216 104v304c0 4.406 3.594 8 7.1 8S232 412.4 232 408v-304C232 99.59 228.4 96 224 96zM320 0C315.6 0 312 3.594 312 8v496c0 4.406 3.594 8 7.1 8S328 508.4 328 504V8C328 3.594 324.4 0 320 0zM416 128C411.6 128 408 131.6 408 136v240c0 4.406 3.594 8 7.1 8S424 380.4 424 376v-240C424 131.6 420.4 128 416 128zM512 64c-4.406 0-8 3.594-8 8v368c0 4.406 3.594 8 7.1 8C516.4 448 520 444.4 520 440V72C520 67.59 516.4 64 512 64zM608 224c-4.406 0-8 3.594-8 8v48C600 284.4 603.6 288 608 288s8-3.594 8-8v-48C616 227.6 612.4 224 608 224zM128 192C123.6 192 120 195.6 120 200v112C120 316.4 123.6 320 127.1 320C132.4 320 136 316.4 136 312v-112C136 195.6 132.4 192 128 192zM32 224C27.59 224 24 227.6 24 232v48C24 284.4 27.59 288 31.1 288S40 284.4 40 280v-48C40 227.6 36.41 224 32 224z"/></svg>
